X:1
T:What We Stand For
T:Princess G. Long
T:What We Stand For
T:Public Domain
T:Public Domain
C:Princess G. Long
Z:Public Domain
%%score ( 1 2 ) ( 3 4 )
L:1/8
M:4/4
K:D
V:1 treble 
V:2 treble 
V:3 bass 
V:4 bass 
V:1
 [DF]3 [DF] [DF]3 [DF] x2 | [DF]2 [FA]2 ([FA]2 [EG]2) | [EG]3 [EG] [EG]3 [EG] x2 | %3
w: 1.~For the Christ of|Ga- li- lee, *|For the truth which|
w: 2.~For the love which|shines in deeds, *|For the life which|
w: 3.~For the right a-|gainst the wrong, *|For the weak a-|
w: 4.~For the faith a-|gainst tra- dition, *|For the truth ’gainst|
w: 5.~For the ci- ty|God is rearing, *|For the New Earth|
 [EG]2 [GB]2 ([GB]2 [FA]2) | [DF]3 [EG] [FA]2 [Fd]2 | [Gd]2 [Ad]2 ([Ge][Gd])([Ac][GB]) | %6
w: makes men free, *|For the bond of|un- i- ty * Which *|
w: this world needs, *|For the church whose|tri- umph speeds * The *|
w: gainst the strong, *|For the poor who’ve|wait- ed long * For~the *|
w: su- per- stition, *|For the hope, whose|glad fru- ition * Our *|
w: now ap- pearing, *|For the heaven above|us clear- ing * And~the *|
 [FA]2 [FA]2 [GA]2 ([GB][Gc]) | [Fd]4 z2 ||"^Refrain" d2 | (z2 G2 [Ge])[Gc][GB][Gd] | %10
w: makes God’s child- ren *|one.|||
w: prayer, “Thy will be *|done.”|||
w: bright- er age to *|be.|||
w: wait- ing eyes shall *|see.|For|* * these, for these|
w: song of vic- to- *|ry.|||
 [Fd]2 [Fd]2 [FA]2 [FA]2 | [GB]2 [GB]2 [^GB]2 ([Gc][Gd]) | (A4 G2) ([FA][EG]) | %13
w: |||
w: |||
w: |||
w: * firm- ly stand,|’Gainst sin and doubt *|and * wrong, *|
w: |||
 [DF]3 [EG] [FA]2 [Fd]2 | [Gd]2 [Ad]2 ([Ge][Gd])([Ac][GB]) | [FA]2 [FA]2 [GA]2 ([GB][Gc]) | %16
w: |||
w: |||
w: |||
w: ev- ery voice in|ev- ery land, * Shall *|join our tri- umph *|
w: |||
 [Fd]6 |] %17
w: |
w: |
w: |
w: song.|
w: |
V:2
 x10 | x8 | x10 | x8 | x8 | x8 | x8 | x6 || x2 | e4- x4 | x8 | x8 | c6 x2 | x8 | x8 | x8 | x6 |] %17
w: |||||||||||||||||
w: |||||||||||||||||
w: |||||||||||||||||
w: |||||||||we’ll|||Till|||||
V:3
 (D,2 z) A, (D,2 z) A, x2 | [D,A,]2 [A,,D]2 ([E,C]2 [A,,C]2) | (C,2 z) C (C,2 z) C x2 | %3
 [C,A,]2 [A,,C]2 [D,D]4 | [D,A,]3 [D,D] [D,D]2 [D,A,]2 | %5
 [E,B,]2 [F,A,]2 ([G,B,][G,B,])([G,D][G,D]) | [A,D]2 [A,D]2 [A,,C]2 (DE) | [D,D]4 z2 || z2 | %9
 z2 [A,C]2 [A,C][A,,A,][B,,A,][C,A,] | [D,A,]2 [D,A,]2 [D,D]2 z2 | z2 [G,D]2 [E,E]2 (EB,) | %12
 [A,E]6 [A,,A,]2 | [D,A,]3 [D,D] [D,D]2 [D,A,]2 | [E,A,]2 [F,A,]2 ([G,B,][G,B,])([G,D][G,D]) | %15
 [A,D]2 [A,D]2 [A,,C]2 (DE) | [D,D]6 |] %17
V:4
 A,3 (A,,2 A,3) A,,2 | x8 | A,3 (A,,2 A,3) A,,2 | x8 | x8 | x8 | x6 A,,2 | x6 || x2 | x8 | x8 | %11
 x6 E,2 | x8 | x8 | x8 | x6 A,,2 | x6 |] %17

